Gurmukhi/0A5E.svg

<svg enable-background="new 0 0 336 592" viewBox="0 0 336 592" xmlns="http://www.w3.org/2000/svg"><path d="m122.966858 261.881775c12.475037-8.066696 26.184235-10.584122 40.286056-10.998413 14.654145-.430512 29.331803-.300446 43.993927-.07431 4.488511.069229 5.793152-1.460541 5.619553-5.770997-.294846-7.321334-.339035-14.674972.005081-21.991821.2193-4.663177-1.453613-5.994995-5.985733-5.971039-30.498337.161301-60.997909.092987-91.49707.098526-10.49971.001923-21.000809-.092971-31.498337.059021-3.337685.048325-5.265419-1.044815-6.258636-4.322693-1.108452-3.658142-2.708771-7.164047-3.959275-10.783111-1.864387-5.395737-.764457-6.870377 5.069008-7.034546.99923-.028122 1.999825-.009964 2.999787-.009766 58.331749.010971 116.66349.022293 174.995231.03357.666657.000137 1.333283-.000168 1.999939.000229 15.81546.009323 16.497193.535034 20.688294 15.953262 1.141601 4.199692-.038697 5.957962-4.508698 6.009979-10.498413.122177-21.001526.202927-31.497253.006577-4.170883-.078034-5.477433 1.470565-5.420029 5.54367.183197 12.996933.09407 25.998429.032913 38.997803-.040191 8.546722-4.05249 12.52063-12.417648 12.536011-19.499146.035858-39.00473-.203156-58.494904.236572-11.175506.252167-21.873459 2.998383-30.115142 11.333588-10.491883 10.610992-11.261216 23.604919-8.280259 37.228851 1.72197 7.869995 5.220383 14.979523 10.228928 21.219147 2.960815-.659333 4.133621-2.830506 5.684708-4.475312 13.659088-14.484375 29.29422-25.752716 49.288635-29.548126 23.140518-4.392639 45.1669 4.766053 53.998077 25.014649 10.672547 24.470672-2.410217 50.408508-28.570694 56.03183-35.450439 7.620239-64.992523-4.163636-89.85791-29.081971-14.610893-14.642028-24.093971-32.278839-26.236175-53.189819-1.945931-18.995117 3.11885-35.305847 19.707626-47.051361m47.2565 84.838806c-3.691009 3.74704-8.050934 6.890808-10.751129 11.491943 12.480545 13.791748 42.496643 18.186249 59.764069 8.935822 10.05429-5.386292 15.003769-13.732727 13.266128-22.370941-1.704651-8.474213-9.172165-14.080445-20.505417-15.243347-1.794098-.184052-3.651031.043426-5.460739.244262-13.747024 1.525727-25.176727 8.109772-36.312912 16.942261z"/><path d="m120.059593 408.551453c-14.106468 2.713073-24.91439-7.556549-22.01168-20.416474 1.789863-7.929718 8.620819-13.379303 16.508751-13.170288 9.598091.254334 15.442558 5.49289 17.126914 15.35138 1.36644 7.997802-3.009918 15.059509-11.623985 18.235382z"/></svg>

<svg version="1.1" id="Layer_1" xmlns="http://www.w3.org/2000/svg" xmlns:xlink="http://www.w3.org/1999/xlink" x="0px" y="0px"
	 width="100%" viewBox="0 0 336 592" enable-background="new 0 0 336 592" xml:space="preserve">
<path fill="#000000" opacity="1.000000" stroke="none" 
	d="
M122.966858,261.881775 
	C135.441895,253.815079 149.151093,251.297653 163.252914,250.883362 
	C177.907059,250.452850 192.584717,250.582916 207.246841,250.809052 
	C211.735352,250.878281 213.039993,249.348511 212.866394,245.038055 
	C212.571548,237.716721 212.527359,230.363083 212.871475,223.046234 
	C213.090775,218.383057 211.417862,217.051239 206.885742,217.075195 
	C176.387405,217.236496 145.887833,217.168182 115.388672,217.173721 
	C104.888962,217.175644 94.387863,217.080750 83.890335,217.232742 
	C80.552650,217.281067 78.624916,216.187927 77.631699,212.910049 
	C76.523247,209.251907 74.922928,205.746002 73.672424,202.126938 
	C71.808037,196.731201 72.907967,195.256561 78.741432,195.092392 
	C79.740662,195.064270 80.741257,195.082428 81.741219,195.082626 
	C140.072968,195.093597 198.404709,195.104919 256.736450,195.116196 
	C257.403107,195.116333 258.069733,195.116028 258.736389,195.116425 
	C274.551849,195.125748 275.233582,195.651459 279.424683,211.069687 
	C280.566284,215.269379 279.385986,217.027649 274.915985,217.079666 
	C264.417572,217.201843 253.914459,217.282593 243.418732,217.086243 
	C239.247849,217.008209 237.941299,218.556808 237.998703,222.629913 
	C238.181900,235.626846 238.092773,248.628342 238.031616,261.627716 
	C237.991425,270.174438 233.979126,274.148346 225.613968,274.163727 
	C206.114822,274.199585 186.609238,273.960571 167.119064,274.400299 
	C155.943558,274.652466 145.245605,277.398682 137.003922,285.733887 
	C126.512039,296.344879 125.742706,309.338806 128.723663,322.962738 
	C130.445633,330.832733 133.944046,337.942261 138.952591,344.181885 
	C141.913406,343.522552 143.086212,341.351379 144.637299,339.706573 
	C158.296387,325.222198 173.931519,313.953857 193.925934,310.158447 
	C217.066452,305.765808 239.092834,314.924500 247.924011,335.173096 
	C258.596558,359.643768 245.513794,385.581604 219.353317,391.204926 
	C183.902878,398.825165 154.360794,387.041290 129.495407,362.122955 
	C114.884514,347.480927 105.401436,329.844116 103.259232,308.933136 
	C101.313301,289.938019 106.378082,273.627289 122.966858,261.881775 
M170.223358,346.720581 
	C166.532349,350.467621 162.172424,353.611389 159.472229,358.212524 
	C171.952774,372.004272 201.968872,376.398773 219.236298,367.148346 
	C229.290588,361.762054 234.240067,353.415619 232.502426,344.777405 
	C230.797775,336.303192 223.330261,330.696960 211.997009,329.534058 
	C210.202911,329.350006 208.345978,329.577484 206.536270,329.778320 
	C192.789246,331.304047 181.359543,337.888092 170.223358,346.720581 
z"/>
<path fill="#000000" opacity="1.000000" stroke="none" 
	d="
M120.059593,408.551453 
	C105.953125,411.264526 95.145203,400.994904 98.047913,388.134979 
	C99.837776,380.205261 106.668732,374.755676 114.556664,374.964691 
	C124.154755,375.219025 129.999222,380.457581 131.683578,390.316071 
	C133.050018,398.313873 128.673660,405.375580 120.059593,408.551453 
z"/>
</svg>
